X:2
T: Susan's Dream
C: Larry Cusick
M: C|
K: G
DGBG DGBG | ABcA dBcA | DGBG DGBG | ABcA d4 :|
K:D
EGAB dBcA | EGAc B2AG | EGAB dBcA | dBcA B4 :|
K:G
df~f2 df~f2 | efge afge | df~f2 df~f2 | efge a4 :|
K:D
e3g fedB | A2dA BAFD | EDFD EDB,D | EDFD E4 :|
